ui/src/style/icons/bug-white.svg

<svg xmlns="http://www.w3.org/2000/svg" viewBox="0 0 24 24"><path fill="#fff" d="M14 12h-4v-2h4m0 6h-4v-2h4m6-6h-2.81a5.985 5.985 0 0 0-1.82-1.96L17 4.41 15.59 3l-2.17 2.17a6.002 6.002 0 0 0-2.83 0L8.41 3 7 4.41l1.62 1.63C7.88 6.55 7.26 7.22 6.81 8H4v2h2.09c-.05.33-.09.66-.09 1v1H4v2h2v1c0 .34.04.67.09 1H4v2h2.81c1.04 1.79 2.97 3 5.19 3s4.15-1.21 5.19-3H20v-2h-2.09c.05-.33.09-.66.09-1v-1h2v-2h-2v-1c0-.34-.04-.67-.09-1H20V8z"/></svg>

<?xml version="1.0" encoding="UTF-8"?>
<!DOCTYPE svg PUBLIC "-//W3C//DTD SVG 1.1//EN" "http://www.w3.org/Graphics/SVG/1.1/DTD/svg11.dtd">
<svg xmlns="http://www.w3.org/2000/svg" xmlns:xlink="http://www.w3.org/1999/xlink" version="1.1"  viewBox="0 0 24 24">
    <path fill="#fff" d="M14,12H10V10H14M14,16H10V14H14M20,8H17.19C16.74,7.22 16.12,6.55 15.37,6.04L17,4.41L15.59,3L13.42,5.17C12.96,5.06 12.5,5 12,5C11.5,5 11.04,5.06 10.59,5.17L8.41,3L7,4.41L8.62,6.04C7.88,6.55 7.26,7.22 6.81,8H4V10H6.09C6.04,10.33 6,10.66 6,11V12H4V14H6V15C6,15.34 6.04,15.67 6.09,16H4V18H6.81C7.85,19.79 9.78,21 12,21C14.22,21 16.15,19.79 17.19,18H20V16H17.91C17.96,15.67 18,15.34 18,15V14H20V12H18V11C18,10.66 17.96,10.33 17.91,10H20V8Z" />
</svg>
